X: 16
T: No_13_Bear_Dance_Song_(i).krn
N: Derived from No_13_Bear_Dance_Song_(i).krn
%%abc-version 2.0
%%abcx-abcm2ps-target-version 5.9.1 (29 Sep 2008)
%%abc-creator hum2abc beta
%%abcx-conversion-date 2019/03/15 08:36:49
%%humdrum-veritas 3736603266
%%humdrum-veritas-data 2636222435
%%linebreak <none>
%%barnumbers 0
L: 1/8
M: 2/4
K: Db clef=bass
[K:clef=bass][M:2/4]F/ [I:setbarnb 1]| 
(3FDE A,3/E/ | 
D3/F,/ A,/A,3/ | 
A,/A,3/ A,3/F/ | 
(3FDE A,3/E/ | 
D3/F,/ A,/A,3/ | 
A,A,- A,3/B,/ | 
(3B,F,B, A,3/B,/ ||  
[M:3/4]A,/A,3/A,3B, ||  
[M:2/4](3B,F,B, A,3/B,/ ||  
[M:3/4]A,A,A,7/z/ |]  



